assets/features/payment-flow/Bangkok Bank ธนาคารกรุงเทพ.svg

<svg width="200" height="200" viewBox="0 0 200 200" fill="none" xmlns="http://www.w3.org/2000/svg">
<rect width="200" height="200" rx="40" fill="#0064FF"/>
<path fill-rule="evenodd" clip-rule="evenodd" d="M146 110.645C146 122.333 140.023 132.866 129.29 140.187L99.9839 160L70.7097 140.187C59.9769 132.866 54 122.366 54 110.645C54 103.002 56.4422 95.9379 62.7405 87.8459L100.016 40L137.292 87.8459C143.558 95.9379 146 103.002 146 110.645ZM91.1149 128.21L72.1236 107.498C68.7496 103.741 67.2071 101.204 66.2752 98.6353C64.1222 102.553 62.9012 106.759 62.9012 111.094C62.9012 119.508 67.657 127.76 76.1083 133.315L94.0391 145.325V138.261C94.0391 133.765 94.1677 131.646 91.1149 128.21ZM100.016 124.902L120.1 103.002C124.856 97.9288 125.788 95.0709 125.788 92.0525C125.788 89.1945 125.016 86.6577 121.482 82.0016L100.016 54.707L78.5505 82.0016C74.855 86.6577 74.2445 89.1945 74.2445 92.0525C74.2445 95.0709 75.1764 97.8967 79.9322 103.002L100.016 124.902ZM137.131 111.094C137.131 106.727 135.91 102.521 133.757 98.6353C132.825 101.204 131.315 103.741 127.941 107.498L108.917 128.21C105.832 131.646 105.993 133.765 105.993 138.261V145.325L123.924 133.315C132.375 127.76 137.131 119.508 137.131 111.094Z" fill="white"/>
</svg>

<svg xmlns="http://www.w3.org/2000/svg" width="200" height="200" fill="none" viewBox="0 0 200 200"><rect width="200" height="200" fill="#0064ff" rx="40"/><path fill="#fff" fill-rule="evenodd" d="M146 110.645c0 11.688-5.977 22.221-16.71 29.542L99.984 160 70.71 140.187C59.977 132.866 54 122.366 54 110.645c0-7.643 2.442-14.707 8.74-22.8L100.017 40l37.276 47.846c6.266 8.092 8.708 15.156 8.708 22.799M91.115 128.21l-18.991-20.712c-3.374-3.757-4.917-6.294-5.849-8.863-2.153 3.918-3.374 8.124-3.374 12.459 0 8.414 4.756 16.666 13.207 22.221l17.931 12.01v-7.064c0-4.496.129-6.615-2.924-10.051m8.901-3.308 20.084-21.9c4.756-5.073 5.688-7.931 5.688-10.95 0-2.858-.772-5.394-4.306-10.05l-21.466-27.295L78.55 82.002c-3.695 4.656-4.305 7.193-4.305 10.05 0 3.019.931 5.845 5.687 10.95zm37.115-13.808c0-4.367-1.221-8.573-3.374-12.459-.932 2.569-2.442 5.106-5.816 8.863l-19.024 20.712c-3.085 3.436-2.924 5.555-2.924 10.051v7.064l17.931-12.01c8.451-5.555 13.207-13.807 13.207-22.221" clip-rule="evenodd"/></svg>
